X:105
T: Donald's Trousers (Am)
M:4/4
L:1/8
K:C
A | "Am" AA AG/A/ BA AA|"G"GG/G/ GG/G/ GG G^F/2G/2|
"Am"AA A>A BA A2|"Em"ed cB "Am"A2 A2|AA AG/A/ BA A2|
"G"GG GG/G/ AG G2|"Am"A>A AA BA/A/ A2|"Em"ed cB "Am"A2 A2|]
